X: 346
T: Miss Douglas
C: anon.
O: Ireland
B: Francis O'Neill: "The Dance Music of Ireland" (1907) no. 346
R: Double jig
Z: Transcribed by Frank Nordberg - http://www.musicaviva.com
F: http://www.musicaviva.com/abc/tunes/ireland/oneill-1001/oneill-1001-034
6.abc
M: 6/8
L: 1/8
K: D
g|f2d edc|d2B AGF|GAB dA(F|G)EE E2g|f2d edc|d2B AGF|GAB dA(G|F)DD D2:|g|a
fd ded|
gfg (a2f)|g2a baf|gee (ef)g|[1afd de(d|g)fg a2f|g2a bag|fdd d2:|[2(f2d) (
e2c)|d2(B A)GF|GAB eA(G|F)DD D2|]
W:
W:
W: From Musica Viva - http://www.musicaviva.com
W: the Internet center for free sheet music downloads.


